X:517
T:Maravillosos e piadosos
Z:Jack Campin, http://www.campin.me.uk/
F:Jack Campin's Nine-Note Tunebook
% last edit 03-02-2013
S:Cantigas de Santa Maria, 13th cent
M:6/8
L:1/8
Q:3/8=90
K:DMin
  GAB A2G|FGA    G2F   |EFG A2F|DEF    A3     |
  GAB A2G|FGA    G2F   |EFG A2F|DEF    G3    ||
|:GAB ABc|B/c/BA B/A/GF|GAB ABc|B/c/BA B/A/G2:|
  GAB A2G|FGA    G2F   |EFG A2F|DEF    A3     |
  GAB A2G|FGA    G2F   |EFG A2F|DEC    D3    ||

